X:1
T:Title
%%score { 1 | 2 } { 3 | 4 }
L:1/8
Q:1/4=75
M:2/4
K:F
V:1 treble nm="Grand Piano, Track 1"
V:2 treble 
V:3 bass nm="Grand Piano, Melody"
V:4 bass 
V:1
 z2 cc | c2 cf | f2 fc | c2 df | dc cc | A2 Ac | d2 cd | c2 Ac | c4 | z2 cA | G2 Ac | F2 AA | %12
 d2 dc | c2 c2 | z2 cc | A2 Ad | c2 cf | d2 fd | c2 cc | c2 dc | A2 FA | c2 cc | c4 |] %23
V:2
 z2 AA | F2 AA | c2 cA | F2 GA | G2 FF | A2 AA | A2 FG | F2 GG | A4 | z2 F2 | A2 AF | G2 FA | %12
 G2 GA | F2 F2 | z2 AA | c2 cB | A2 AG | d2 cd | c2 AA | A2 GA | F2 FF | A2 GG | A4 |] %23
V:3
 z2 F,F, | A,2 A,C | C2 CC | FE DC | DC CC | F2 AF | D2 FD | C2 DF | F4 | z2 A,C | C2 CC | C2 A,C | %12
 D2 DF | C2 C2 | z2 CD/E/ | F2 FD | C2 C[K:bass]A, | G,2 F,A, | C2[K:treble] CF | F2 DF | %20
 C2[K:bass] A,C | C>A, G,G, | F,4 |] %23
V:4
 z2 F,F, | F,2 C,C, | F,2 F,F, | C2 A,F, | G,A, F,F, | F,2 C,C, | D,2 F,G, | C,2 C,C, | F,4 | %9
 z2 A,G, | F,2 F,F, | C,2 D,F, | G,2 G,A, | F,2 F,2 | z2 CA, | F,2 F,D, | F,2 C,D, | G,2 A,F, | %18
 F,2 F,F, | A,2 G,F, | C,2 F,F, | F,2 C,C, | F,4 |] %23

